!!!!SEGMENT: Ver2009-Deus_in_nomine_tuo.krn
!!!id: Ver2009
!!!AGN: Motet
!!!voices: 3-6
!!!COM: Philippe Verdelot
!!!OTL: Deus in nomine tuo
**kern	**kern	**kern	**kern	**kern	**kern
*part6	*part5	*part4	*part3	*part2	*part1
*staff6	*staff5	*staff4	*staff3	*staff2	*staff1
*I"Bassus II	*I"Bassus I	*I"Tenor II	*I"Tenor I	*I"Altus	*I"Superius
*I'B. II	*I'B. I	*I'T. II	*I'T. I	*I'A	*I'S
*clefF4	*clefF4	*clefGv2	*clefGv2	*clefGv2	*clefG2
*k[b-]	*k[b-]	*k[b-]	*k[b-]	*k[b-]	*k[b-]
*F:	*F:	*F:	*F:	*F:	*F:
*M2/1	*M2/1	*M2/1	*M2/1	*M2/1	*M2/1
*met(C|)	*met(O)	*met(C|)	*met(C|)	*met(C|)	*met(C|)
!!section: Prima pars: Deus in nomine tuo
!!!OMD: Prima pars: Deus in nomine tuo
!!primary-mensuration: met(C|)
0r	0r	0r	0D	0r	0r
=1	=1	=1	=1	=1	=1
0GG	0r	0r	0G	0r	0r
=2	=2	=2	=2	=2	=2
0D	0r	0r	1F	0r	0r
.	.	.	[1A	.	.
=3	=3	=3	=3	=3	=3
1C	0r	0r	2A]	0r	0r
.	.	.	2G	.	.
[1E-X	.	.	1G	.	.
=4	=4	=4	=4	=4	=4
2E-]	0r	0r	0B-y	0r	0r
2D	.	.	.	.	.
1D	.	.	.	.	.
=5	=5	=5	=5	=5	=5
0F	0r	0r	1A	0r	0r
.	.	.	2r	.	.
.	.	.	[2c	.	.
=6	=6	=6	=6	=6	=6
1E	0r	0r	2c]	0r	0r
.	.	.	1G	.	.
2r	.	.	.	.	.
[2G	.	.	[2B-y	.	.
=7	=7	=7	=7	=7	=7
2G]	0r	0r	4B-]	0r	0r
.	.	.	4A	.	.
1D	.	.	2.F	.	.
.	.	.	4G	.	.
[2F	.	.	4A	.	.
.	.	.	4B-y	.	.
=8	=8	=8	=8	=8	=8
4F]	0r	0r	0c	0r	0r
4E	.	.	.	.	.
2.C	.	.	.	.	.
4D	.	.	.	.	.
4E	.	.	.	.	.
4F	.	.	.	.	.
=9	=9	=9	=9	=9	=9
1G	0r	0r	1B-y	0r	0d
2F	.	.	2A	.	.
[2G	.	.	[2d	.	.
=10	=10	=10	=10	=10	=10
4G]	0r	0G	2d]	0r	0g
4F	.	.	.	.	.
4E	.	.	4c	.	.
4D	.	.	4B-y	.	.
1E	.	.	2c	.	.
.	.	.	2G	.	.
=11	=11	=11	=11	=11	=11
0D	0r	0d	1B-y	0r	1f
.	.	.	1A	.	[1a
=12	=12	=12	=12	=12	=12
0r	0r	1c	0r	0r	2a]
.	.	.	.	.	2g
.	.	[1e-X	.	.	1g
=13	=13	=13	=13	=13	=13
0r	0r	2e-]	0r	0G	0b-y
.	.	2d	.	.	.
.	.	1d	.	.	.
=14	=14	=14	=14	=14	=14
0r	0r	0f	0r	0d	0a
=15	=15	=15	=15	=15	=15
0r	0r	1e	0r	1c	2r
.	.	.	.	.	1cc
.	.	2r	.	[1e-X	.
.	.	[2c	.	.	[2g
=16	=16	=16	=16	=16	=16
0r	0r	2c]	0r	2e-]	2g]
.	.	1G	.	2d	2.b-y
.	.	.	.	1d	.
.	.	.	.	.	4a
.	.	[2B-y	.	.	[2f
=17	=17	=17	=17	=17	=17
0r	0r	4B-]	0r	0f	4f]
.	.	4A	.	.	4g
.	.	2.F	.	.	4a
.	.	.	.	.	4b-y
.	.	.	.	.	[1cc
.	.	4G	.	.	.
.	.	4A	.	.	.
.	.	4B-y	.	.	.
=18	=18	=18	=18	=18	=18
0r	0r	1c	0r	1e	1cc]
.	.	1G	.	2r	[1b-y
.	.	.	.	[2g	.
=19	=19	=19	=19	=19	=19
0r	0r	2.B-y	0r	2g]	1b-]
.	.	.	.	1d	.
.	.	4c	.	.	.
.	.	1d	.	.	1a
.	.	.	.	[2f	.
=20	=20	=20	=20	=20	=20
0r	0r	1A	0r	4f]	2r
.	.	.	.	4e	.
.	.	.	.	2.c	1a
.	.	1c	.	.	.
.	.	.	.	4d	.
.	.	.	.	[2e	[2g
=21	=21	=21	=21	=21	=21
0r	0r	1B-y	0r	2e]	4g]
.	.	.	.	.	4f
.	.	.	.	1d	4e
.	.	.	.	.	4d
.	.	[1A	.	.	1e
.	.	.	.	2c#i	.
=22	=22	=22	=22	=22	=22
0r	0r	1A]	1D	1d	0d
.	.	1D	[1d	2r	.
.	.	.	.	2f	.
=23	=23	=23	=23	=23	=23
1D	0r	0r	2d]	2.f	0r
.	.	.	2d	.	.
.	.	.	.	4e	.
[1G	.	.	2B-y	4d	.
.	.	.	.	4c	.
.	.	.	2G	[2d	.
=24	=24	=24	=24	=24	=24
2G]	0r	0r	1B-y	2d]	0r
2G	.	.	.	4c	.
.	.	.	.	4B-y	.
2F	.	.	1A	2c	.
2D	.	.	.	2d	.
=25	=25	=25	=25	=25	=25
1E	0r	0r	1c	1G	0r
2D	.	.	2B-y	1r	.
[2F	.	.	[2A	.	.
=26	=26	=26	=26	=26	=26
4F]	0r	1D	4A]	0r	0r
4E	.	.	4G	.	.
2.D	.	.	4F	.	.
.	.	.	4E	.	.
.	.	[1d	2D	.	.
4C	.	.	.	.	.
4BB-y	.	.	[2B-y	.	.
4AA	.	.	.	.	.
=27	=27	=27	=27	=27	=27
2GG	0r	2d]	4B-]	0r	0r
.	.	.	4A	.	.
2BB-y	.	2d	1G	.	.
1AA	.	2c	.	.	.
.	.	2A	2F#i	.	.
=28	=28	=28	=28	=28	=28
[0GG	0r	2B-y	0G	0r	1g
.	.	2.G	.	.	.
.	.	.	.	.	[1dd
.	.	4A	.	.	.
.	.	4B-y	.	.	.
.	.	4c	.	.	.
=29	=29	=29	=29	=29	=29
0GG]	0r	1d	0r	1G	2dd]
.	.	.	.	.	2dd
.	.	1r	.	[1g	2b-y
.	.	.	.	.	2g
=30	=30	=30	=30	=30	=30
0r	0r	1G	0r	2g]	1b-y
.	.	.	.	2g	.
.	.	[1d	.	2f	[1a
.	.	.	.	2d	.
=31	=31	=31	=31	=31	=31
0r	0r	2d]	1r	1f	2a]
.	.	2d	.	.	2f
.	.	2c	2r	2e	2g
.	.	2A	2D	[2d	[2a
=32	=32	=32	=32	=32	=32
0r	0r	0B-y	1.G	4d]	2a]
.	.	.	.	4c	.
.	.	.	.	4B-y	4g
.	.	.	.	4A	4f
.	.	.	.	2G	1g
.	.	.	2G	2d	.
=33	=33	=33	=33	=33	=33
0r	0r	2A	2F	1f	2a
.	.	1d	2D	.	1b-y
.	.	.	1E	1g	.
.	.	2c#i	.	.	4a
.	.	.	.	.	4g
=34	=34	=34	=34	=34	=34
0r	0r	2.d	2.D	2.f	2b-y
.	.	.	.	.	2.a
.	.	8cL	4E	4e	.
.	.	8B-yJ	.	.	.
.	.	1A	2F	2d	.
.	.	.	.	.	4g
.	.	.	2F	2c	4f
.	.	.	.	.	4e
=35	=35	=35	=35	=35	=35
0r	0r	2B-y	2G	2B-y	2d
.	.	2c	2E	4A	1g
.	.	.	.	4G	.
.	.	2.d	1D	1A	.
.	.	.	.	.	2f#i
.	.	4c	.	.	.
=36	=36	=36	=36	=36	=36
0GG	[0D	2B-y	1r	4G	1g
.	.	.	.	4A	.
.	.	4G	.	4B-y	.
.	.	4A	.	4c	.
.	.	4B-y	[1G	2d	1r
.	.	4c	.	.	.
.	.	[2d	.	2G	.
=37	=37	=37	=37	=37	=37
1GG	0D]	4d]	1G]	4B-y	0g
.	.	4c	.	4A	.
.	.	4B-y	.	4B-y	.
.	.	4A	.	4c	.
1GG	.	1B-y	1G	1d	.
=38	=38	=38	=38	=38	=38
0C	0E	2r	1G	0c	1g
.	.	2G	.	.	.
.	.	2G	[1c	.	1g
.	.	2G	.	.	.
=39	=39	=39	=39	=39	=39
0AA	0C	0A	1c]	1c	0cc
.	.	.	[1A	1c	.
=40	=40	=40	=40	=40	=40
1r	[0D	2.F	1A]	0f	0a
.	.	4E	.	.	.
1D	.	4F	1r	.	.
.	.	4G	.	.	.
.	.	[2A	.	.	.
=41	=41	=41	=41	=41	=41
1.F	0D]	4A]	1A	2d	1r
.	.	4G	.	.	.
.	.	4F	.	2d	.
.	.	4E	.	.	.
.	.	[1D	[1d	[1f	1a
2F	.	.	.	.	.
=42	=42	=42	=42	=42	=42
1F	0BB-y	1D]	2d]	2f]	1.b-y
.	.	.	2d	2e	.
1F	.	1r	1d	2.d	.
.	.	.	.	.	2b-y
.	.	.	.	4c	.
=43	=43	=43	=43	=43	=43
1.G	1r	0r	1d	0B-y	1b-y
.	1GG	.	[1d	.	1b-y
2F	.	.	.	.	.
=44	=44	=44	=44	=44	=44
2.E	0AA	0r	2d]	1c	0a
.	.	.	4c#i	.	.
4D	.	.	4BnXi	.	.
1E	.	.	1c#i	1A	.
=45	=45	=45	=45	=45	=45
0D	0BB-y	2r	0d	1r	0f
.	.	2D	.	.	.
.	.	2F	.	1d	.
.	.	2F	.	.	.
=46	=46	=46	=46	=46	=46
0r	0C	2E	0r	1.e	1r
.	.	4C	.	.	.
.	.	4D	.	.	.
.	.	4E	.	.	1g
.	.	4F	.	.	.
.	.	[2G	.	2d	.
=47	=47	=47	=47	=47	=47
0r	0AA	2G]	0r	2.c	1cc
.	.	4F#i	.	.	.
.	.	4E	.	4B-y	.
.	.	1F#i	.	1A	1cc
=48	=48	=48	=48	=48	=48
0r	[0GG	[0G	1r	2.B-y	1.b-y
.	.	.	.	4c	.
.	.	.	1G	1d	.
.	.	.	.	.	2a
=49	=49	=49	=49	=49	=49
1r	0GG_	0G]	1d	1.B-y	0g
1D	.	.	1d	.	.
.	.	.	.	2c	.
=50	=50	=50	=50	=50	=50
1G	0GG]	0r	1.B-y	1.d	1r
1G	.	.	.	.	1g
.	.	.	2B-y	2e	.
=51	=51	=51	=51	=51	=51
1.F	0r	1r	1A	1f	0a
.	.	1A	[1F	1c	.
2E	.	.	.	.	.
=52	=52	=52	=52	=52	=52
1D	0r	1d	1F]	1f	1a
1BB-y	.	1d	1D	1f	1b-y
=53	=53	=53	=53	=53	=53
1C	0r	1.c	1E	1.e	1a
1C	.	.	1E	.	[1g
.	.	2B-y	.	2e	.
=54	=54	=54	=54	=54	=54
1D	0r	1A	1F	0d	2g]
.	.	.	.	.	4f#i
.	.	.	.	.	4e
1D	.	2r	1D	.	1f#i
.	.	2A	.	.	.
=55	=55	=55	=55	=55	=55
1GG	0r	1B-y	2r	1r	0g
.	.	.	2D	.	.
2r	.	1B-y	[1G	1d	.
2GG	.	.	.	.	.
=56	=56	=56	=56	=56	=56
1D	0r	2.A	2G]	1d	0r
.	.	.	4F#i	.	.
.	.	4G	4E	.	.
2.D	.	2A	2F#i	1d	.
.	.	[2B-y	2F#i	.	.
4C	.	.	.	.	.
=57	=57	=57	=57	=57	=57
2BB-y	0r	4B-]	1G	2d	0r
.	.	4A	.	.	.
2C	.	1G	.	1e	.
1AA	.	.	1A	.	.
.	.	2F#i	.	4d	.
.	.	.	.	4c	.
=58	=58	=58	=58	=58	=58
1GG	0r	1G	2.B-y	2e	2r
.	.	.	.	2d	1b-y
.	.	.	4A	.	.
1r	.	1r	2G	2r	.
.	.	.	4F	[2d	2a
.	.	.	4E	.	.
=59	=59	=59	=59	=59	=59
0r	0r	0r	2D	2d]	2f
.	.	.	1G	2B-y	2g
.	.	.	.	2c	1a
.	.	.	2F#i	[2d	.
=60	=60	=60	=60	=60	=60
0r	0r	0r	1G	4d]	1b-y
.	.	.	.	4G	.
.	.	.	.	1g	.
.	.	.	1r	.	1a
.	.	.	.	2f	.
=61	=61	=61	=61	=61	=61
0r	0r	0r	0r	1e	2r
.	.	.	.	.	2g
.	.	.	.	1d	2a
.	.	.	.	.	2a
=62	=62	=62	=62	=62	=62
0r	0r	0r	0r	2r	1cc
.	.	.	.	2c	.
.	.	.	.	2d	2b-y
.	.	.	.	2d	[2a
=63	=63	=63	=63	=63	=63
1r	0r	0r	2r	1f	4a]
.	.	.	.	.	4g
.	.	.	1B-y	.	4f
.	.	.	.	.	4e
2r	.	.	.	[1f	4d
.	.	.	.	.	4e
[2D	.	.	2A	.	4f
.	.	.	.	.	4g
=64	=64	=64	=64	=64	=64
2D]	0r	1r	2F	2f]	2a
2BB-y	.	.	2G	4e	2.b-y
.	.	.	.	4d	.
2C	.	2r	1A	2c	.
.	.	.	.	.	4a
2D	.	[2d	.	[2f	[2a
=65	=65	=65	=65	=65	=65
2GG	0r	2d]	1B-y	4f]	2a]
.	.	.	.	4d	.
1G	.	2B-y	.	2.e	2g
.	.	2c	1A	.	1a
.	.	.	.	4d	.
2F	.	2d	.	[2d	.
=66	=66	=66	=66	=66	=66
1E	0r	2G	2r	2d]	0r
.	.	1g	2G	2c#i	.
1D	.	.	2A	1d	.
.	.	2f	2A	.	.
=67	=67	=67	=67	=67	=67
2r	0r	1e	1c	0r	0r
2C	.	.	.	.	.
2D	.	1d	2B-y	.	.
2D	.	.	[2A	.	.
=68	=68	=68	=68	=68	=68
1F	0r	2r	4A]	0r	1r
.	.	.	4G	.	.
.	.	2c	4F	.	.
.	.	.	4E	.	.
1F	.	2d	4D	.	2r
.	.	.	4E	.	.
.	.	2d	4F	.	[2a
.	.	.	4G	.	.
=69	=69	=69	=69	=69	=69
1D	0r	1f	2A	0r	2a]
.	.	.	2.B-y	.	2f
2G	.	2e	.	.	2g
.	.	.	4A	.	.
2F	.	[2d	[2A	.	2a
=70	=70	=70	=70	=70	=70
1G	0r	2d]	2A]	0r	2d
.	.	2.e	2G	.	1g
1D	.	.	[1A	.	.
.	.	4d	.	.	.
.	.	[2d	.	.	2f
=71	=71	=71	=71	=71	=71
1r	0r	2d]	1A]	0r	1e
.	.	2c#i	.	.	.
1GG	.	2d	2r	.	1d
.	.	2B-y	2d	.	.
=72	=72	=72	=72	=72	=72
1C	[0G	1c	1e-i	1r	2r
.	.	.	.	.	2g
2GG	.	1B-y	2d	2r	1b-y
2GG	.	.	2B-y	2d	.
=73	=73	=73	=73	=73	=73
1C	0G]	0r	2c	1e-i	1g
.	.	.	4G	.	.
.	.	.	4A	.	.
2GG	.	.	4B-y	2d	1r
.	.	.	4c	.	.
2GG	.	.	[2d	2B-y	.
=74	=74	=74	=74	=74	=74
1BB-y	0F	0r	2d]	1d	2r
.	.	.	2D	.	2b-y
1AA	.	.	1A	2c	1cc
.	.	.	.	2A	.
=75	=75	=75	=75	=75	=75
1GG	[0G	2r	1D	2r	1b-y
.	.	2B-y	.	2d	.
1C	.	1c	1r	1e	1g
=76	=76	=76	=76	=76	=76
0GG	0G]	2B-y	0r	2d	0b-y
.	.	2G	.	2B-y	.
.	.	2.B-y	.	2G	.
.	.	.	.	[2g	.
.	.	4c	.	.	.
=77	=77	=77	=77	=77	=77
1r	0D	1d	2r	4g]	1a
.	.	.	.	8f#iL	.
.	.	.	.	8eJ	.
.	.	.	2d	2f#i	.
[1GG	.	1B-y	1d	1g	[1g
=78	=78	=78	=78	=78	=78
2GG]	0G	2r	2B-y	2r	1g]
2GG	.	1D	2G	1d	.
1GG	.	.	1B-y	.	1r
.	.	2E	.	2d	.
=79	=79	=79	=79	=79	=79
0D	0F	2.F	2A	1d	1.a
.	.	.	2D	.	.
.	.	4G	.	.	.
.	.	2A	2.F	[1d	.
.	.	2B-y	.	.	2a
.	.	.	4G	.	.
=80	=80	=80	=80	=80	=80
0AA	0E	2c	1A	2d]	1a
.	.	2d	.	4c#i	.
.	.	.	.	4BnXi	.
.	.	1e	1A	1c#i	[1a
=81	=81	=81	=81	=81	=81
2r	1D	1f	2F	1d	1a]
1D	.	.	2A	.	.
.	[1F	1r	2A	1r	1a
2AA	.	.	2c	.	.
=82	=82	=82	=82	=82	=82
2BB-y	1F]	0r	2B-y	0r	0r
2D	.	.	2.A	.	.
2C	2E	.	.	.	.
.	.	.	4G	.	.
2BB-y	2D	.	2G	.	.
=83	=83	=83	=83	=83	=83
0AA	0E	1c	0A	2r	2r
.	.	.	.	2e	2a
.	.	2c	.	2e	2a
.	.	2c	.	2e	2cc
=84	=84	=84	=84	=84	=84
1D	[0D	2.d	1F	2.f	2b-y
.	.	.	.	.	2.a
.	.	4c	.	4e	.
1GG	.	1B-y	1G	1d	.
.	.	.	.	.	4g
.	.	.	.	.	2g
=85	=85	=85	=85	=85	=85
1r	0D_	1A	0F	0d	1a
1BB-y	.	[1d	.	.	[1b-y
=86	=86	=86	=86	=86	=86
2BB-y	0D]	1d]	1r	0f	1b-]
2BB-y	.	.	.	.	.
1F	.	1d	2r	.	1a
.	.	.	2A	.	.
=87	=87	=87	=87	=87	=87
1C	0r	0r	2c	1e	2r
.	.	.	2c	.	2e
1E-X	.	.	2B-y	1r	2g
.	.	.	2G	.	2g
=88	=88	=88	=88	=88	=88
2D	0r	1r	2.B-y	0r	2f
1BB-y	.	.	.	.	2d
.	.	.	4c	.	.
.	.	2r	2d	.	2.f
4AA	.	2D	4c	.	.
4GG	.	.	4B-y	.	4g
=89	=89	=89	=89	=89	=89
1FF	0r	2F	1A	2r	4a
.	.	.	.	.	4b-y
.	.	2F	.	2A	2.cc
1r	.	2E	2G	2c	.
.	.	.	.	.	4b-y
.	.	2F	2A	2c	[2a
=90	=90	=90	=90	=90	=90
0r	0r	2G	2B-y	2B-y	4a]
.	.	.	.	.	4g
.	.	4F	2c	2G	1g
.	.	4E	.	.	.
.	.	[1D	2d	1A	.
.	.	.	2A	.	2f#i
=91	=91	=91	=91	=91	=91
1GG	[0G	1D]	2B-y	1G	0g
.	.	.	2B-y	.	.
2C	.	1E	2c	1r	.
2C	.	.	2G	.	.
=92	=92	=92	=92	=92	=92
2BB-y	0G]	1D	2.B-y	1d	0r
2GG	.	.	.	.	.
.	.	.	4c	.	.
2BB-y	.	1r	2d	2d	.
2C	.	.	4c	2e	.
.	.	.	4B-y	.	.
=93	=93	=93	=93	=93	=93
2.D	0F	0r	1A	2.f	2r
.	.	.	.	.	2a
8CL	.	.	.	8eL	.
8BB-yJ	.	.	.	8dJ	.
1AA	.	.	2r	2.c	2cc
.	.	.	2A	.	2cc
.	.	.	.	4d	.
=94	=94	=94	=94	=94	=94
1GG	0G	2r	2B-y	2e-X	2b-y
.	.	2D	2B-y	1d	4g
.	.	.	.	.	4a
1GG	.	[1G	1d	.	4b-y
.	.	.	.	.	4cc
.	.	.	.	[2g	4dd
.	.	.	.	.	4b-y
=95	=95	=95	=95	=95	=95
1.C	0E	0G]	2c	4g]	2.cc
.	.	.	.	4f	.
.	.	.	4C	1e	.
.	.	.	4D	.	8b-yL
.	.	.	.	.	8aJ
.	.	.	4E	.	2.g
.	.	.	4F	.	.
2C	.	.	[2G	2c	.
.	.	.	.	.	4a
=96	=96	=96	=96	=96	=96
2BB-y	[0Dl	1G	4G]	1.d	4b-y
.	.	.	4A	.	4cc
2GG	.	.	2.B-y	.	2.dd
2.BB-y	.	2F	.	.	.
.	.	.	4c	.	4cc
.	.	2D	[2d	[2f	2b-y
4C	.	.	.	.	.
=97	=97	=97	=97	=97	=97
2D	0D_	2F	4d]	4f]	2a
.	.	.	4c	4e	.
2GG	.	2G	2B-y	4d	1g
.	.	.	.	4c	.
1D	.	1A	1A	1d	.
.	.	.	.	.	2f#i
=98	=98	=98	=98	=98	=98
00GG	00D]	00BnX	00G	00d	00g
=99||	=99||	=99||	=99||	=99||	=99||
*M2/1	*M2/1	*M2/1	*M2/1	*M2/1	*M2/1
*met(C|)	*met(C|)	*met(C|)	*met(C|)	*met(C|)	*met(C|)
!!section: Secunda pars: Ecce enim Deus
!!!OMD: Secunda pars: Ecce enim Deus
0r	0r	0r	0d	0r	0r
=100	=100	=100	=100	=100	=100
0r	0r	0r	1d	0r	0r
.	.	.	1c	.	.
=101	=101	=101	=101	=101	=101
0r	0r	0r	2.d	0d	0r
.	.	.	4c	.	.
.	.	.	4B-y	.	.
.	.	.	4A	.	.
.	.	.	[2B-y	.	.
=102	=102	=102	=102	=102	=102
0r	0r	0r	2B-]	1d	0r
.	.	.	4A	.	.
.	.	.	4G	.	.
.	.	.	1A	1c	.
=103	=103	=103	=103	=103	=103
0r	0r	0G	1r	2.d	0r
.	.	.	.	4c	.
.	.	.	[1d	4B-y	.
.	.	.	.	4A	.
.	.	.	.	[2B-y	.
=104	=104	=104	=104	=104	=104
0r	0r	1G	2d]	2B-]	0r
.	.	.	2d	4A	.
.	.	.	.	4G	.
.	.	1F	1f	1A	.
=105	=105	=105	=105	=105	=105
0r	0r	2.G	2e	1r	0r
.	.	.	2.d	.	.
.	.	4F	.	.	.
.	.	4G	.	[1d	.
.	.	4A	4c	.	.
.	.	[2B-y	4B-y	.	.
.	.	.	4A	.	.
=106	=106	=106	=106	=106	=106
0r	0r	2B-]	2G	2d]	0r
.	.	4A	4F	2d	.
.	.	4G	4E	.	.
.	.	1A	4D	1f	.
.	.	.	4E	.	.
.	.	.	4F	.	.
.	.	.	4G	.	.
=107	=107	=107	=107	=107	=107
0r	0r	1r	2A	2e	0r
.	.	.	2.B-y	2.d	.
.	.	[1G	.	.	.
.	.	.	4c	4c	.
.	.	.	[2d	4B-y	.
.	.	.	.	4A	.
=108	=108	=108	=108	=108	=108
0r	0r	2G]	4d]	4G	0r
.	.	.	4c	4A	.
.	.	2G	4B-y	4B-y	.
.	.	.	4A	4c	.
.	.	1B-y	2G	4d	.
.	.	.	.	4e	.
.	.	.	2D	[2f	.
=109	=109	=109	=109	=109	=109
0r	0r	2A	2F	2f]	0r
.	.	2.G	4C	1e	.
.	.	.	4D	.	.
.	.	.	4E	.	.
.	.	4A	4F	.	.
.	.	4B-y	2G	2d	.
.	.	4c	.	.	.
=110	=110	=110	=110	=110	=110
0r	0r	2d	4D	1.f	0r
.	.	.	4E	.	.
.	.	4D	4F	.	.
.	.	4E	4G	.	.
.	.	4F	4A	.	.
.	.	4G	4B-y	.	.
.	.	[2A	4c	4e	.
.	.	.	4d	4d	.
=111	=111	=111	=111	=111	=111
0r	0r	2A]	2e	2c	0r
.	.	2F	1d	2d	.
.	.	2G	.	1e	.
.	.	[2A	2c#i	.	.
=112	=112	=112	=112	=112	=112
0r	0r	4A]	2.d	0d	0r
.	.	4D	.	.	.
.	.	1G	.	.	.
.	.	.	8cL	.	.
.	.	.	8B-yJ	.	.
.	.	.	1A	.	.
.	.	2F	.	.	.
=113	=113	=113	=113	=113	=113
0r	0r	1E	2r	1r	0r
.	.	.	2G	.	.
.	.	1D	2.A	2r	.
.	.	.	.	2d	.
.	.	.	4B-y	.	.
=114	=114	=114	=114	=114	=114
0r	0r	0r	2c	2.e	0r
.	.	.	2G	.	.
.	.	.	.	4f	.
.	.	.	1B-y	2g	.
.	.	.	.	2d	.
=115	=115	=115	=115	=115	=115
0r	0r	2r	1A	1f	0r
.	.	2D	.	.	.
.	.	2.E	2.G	1e	.
.	.	4F	4A	.	.
=116	=116	=116	=116	=116	=116
0r	0r	2G	4B-y	1d	0r
.	.	.	4c	.	.
.	.	2G	2d	.	.
.	.	1B-y	2G	2r	.
.	.	.	[2d	2d	.
=117	=117	=117	=117	=117	=117
0r	0r	1A	4d]	2.e	0r
.	.	.	8cL	.	.
.	.	.	8B-yJ	.	.
.	.	.	2c	.	.
.	.	.	.	4f	.
.	.	1G	2d	2g	.
.	.	.	2G	2d	.
=118	=118	=118	=118	=118	=118
0r	0r	2r	2.A	1f	0r
.	.	2D	.	.	.
.	.	.	4B-y	.	.
.	.	2.E	2c	1e	.
.	.	.	2G	.	.
.	.	4F	.	.	.
=119	=119	=119	=119	=119	=119
0r	0r	2G	1B-y	2d	0r
.	.	2D	.	2.f	.
.	.	1F	1A	.	.
.	.	.	.	4e	.
.	.	.	.	4c	.
.	.	.	.	4d	.
=120	=120	=120	=120	=120	=120
0r	0r	1E	1G	4e	0r
.	.	.	.	4f	.
.	.	.	.	1g	.
.	.	[1D	2r	.	.
.	.	.	[2A	4f	.
.	.	.	.	4e	.
=121	=121	=121	=121	=121	=121
0r	0r	1D]	2A]	1f	0r
.	.	.	1d	.	.
.	.	2.A	.	1e	.
.	.	.	2c#i	.	.
.	.	4G	.	.	.
=122	=122	=122	=122	=122	=122
0r	0r	2F	2.d	2r	0r
.	.	1G	.	1d	.
.	.	.	4c	.	.
.	.	.	2B-y	.	.
.	.	4F	4A	[2g	.
.	.	4E	4G	.	.
=123	=123	=123	=123	=123	=123
0r	0r	1D	1A	2g]	0r
.	.	.	.	2f#i	.
.	.	1r	2r	1g	.
.	.	.	2G	.	.
=124	=124	=124	=124	=124	=124
0r	0r	2r	1B-y	0d	0r
.	.	1D	.	.	.
.	.	.	2A	.	.
.	.	[2G	[2B-y	.	.
=125	=125	=125	=125	=125	=125
0r	0r	2G]	4B-]	2r	0r
.	.	.	4G	.	.
.	.	2F#i	2A	1d	.
.	.	1G	2.B-y	.	.
.	.	.	.	[2g	.
.	.	.	8AL	.	.
.	.	.	8GJ	.	.
=126	=126	=126	=126	=126	=126
0r	0r	1D	1A	2g]	0r
.	.	.	.	2f#i	.
.	.	1r	2G	1g	.
.	.	.	2G	.	.
=127	=127	=127	=127	=127	=127
0r	0r	2r	1B-y	[0dl	0r
.	.	1D	.	.	.
.	.	.	2A	.	.
.	.	[2G	[2B-y	.	.
=128	=128	=128	=128	=128	=128
0r	0r	2G]	4B-]	0d_	0r
.	.	.	4G	.	.
.	.	2F#i	2A	.	.
.	.	1G	1B-y	.	.
=129	=129	=129	=129	=129	=129
00r	00r	00D	00A	00d]	00r
=130||	=130||	=130||	=130||	=130||	=130||
*M2/1	*M2/1	*M2/1	*M2/1	*M2/1	*M2/1
*met(C|)	*met(C|)	*met(C|)	*met(C|)	*met(C|)	*met(C|)
!!section: Tertia pars: Averte mala
!!!OMD: Tertia pars: Averte mala
0r	0r	0d	0r	0r	0r
=131	=131	=131	=131	=131	=131
0r	0r	1e-X	1r	0r	0r
.	.	1c	[1A	.	.
=132	=132	=132	=132	=132	=132
0D	0r	0d	1A]	0r	0r
.	.	.	1B-y	.	.
=133	=133	=133	=133	=133	=133
1E-X	0r	1B-y	1G	0r	0r
1C	.	1c	[1A	.	.
=134	=134	=134	=134	=134	=134
0D	0r	2.F	1A]	0r	0r
.	.	4G	.	.	.
.	.	2A	1F	.	.
.	.	[2B-y	.	.	.
=135	=135	=135	=135	=135	=135
1BB-y	0r	4B-]	2r	0r	0r
.	.	4c	.	.	.
.	.	2d	2D	.	.
2r	.	1G	1E	.	.
2GG	.	.	.	.	.
=136	=136	=136	=136	=136	=136
1AA	0r	2r	1F	0r	0r
.	.	2c	.	.	.
1BB-y	.	2d	2D	.	.
.	.	2d	[2G	.	.
=137	=137	=137	=137	=137	=137
1C	0r	2.c	2G]	1r	0a
.	.	.	4F#i	.	.
.	.	4B-y	4E	.	.
1D	.	1A	1F#i	[1d	.
=138	=138	=138	=138	=138	=138
1GG	0r	2G	1G	1d]	1b-y
.	.	2G	.	.	.
1r	.	2c	1r	1e-X	1g
.	.	2c	.	.	.
=139	=139	=139	=139	=139	=139
0r	0r	1A	1r	1c	0a
.	.	2.F	2r	[1d	.
.	.	.	2D	.	.
.	.	4G	.	.	.
=140	=140	=140	=140	=140	=140
0r	0r	2A	2D	1d]	1f
.	.	2.B-y	2D	.	.
.	.	.	2.G	1B-y	2r
.	.	4A	.	.	.
.	.	[2d	.	.	2d
.	.	.	4F	.	.
=141	=141	=141	=141	=141	=141
0r	0r	2d]	1E	2r	1e
.	.	2c#i	.	2G	.
.	.	[1d	1D	1A	1f
=142	=142	=142	=142	=142	=142
1GG	0D	0d]	0r	1B-y	2d
.	.	.	.	.	1g
2D	.	.	.	1A	.
2D	.	.	.	.	2f#i
=143	=143	=143	=143	=143	=143
2.C	1E	2r	0r	0c	1g
.	.	1G	.	.	.
4BB-y	.	.	.	.	.
1AA	1C	.	.	.	1r
.	.	2F	.	.	.
=144	=144	=144	=144	=144	=144
1GG	0D	2G	2r	2.B-y	0r
.	.	1B-y	1G	.	.
.	.	.	.	4c	.
1r	.	.	.	[1d	.
.	.	2A	2F	.	.
=145	=145	=145	=145	=145	=145
0r	1BB-y	0B-y	2G	1d]	0r
.	.	.	2D	.	.
.	2r	.	1G	2r	.
.	2GG	.	.	[2d	.
=146	=146	=146	=146	=146	=146
0r	1AA	1A	2F	2d]	0r
.	.	.	2E	2c	.
.	1BB-y	1F	1D	1d	.
=147	=147	=147	=147	=147	=147
2r	1C	0r	2.E	1G	0r
1G	.	.	.	.	.
.	.	.	4D	.	.
.	1AA	.	1C	1c	.
2F	.	.	.	.	.
=148	=148	=148	=148	=148	=148
2G	0GG	1r	0D	1.B-y	0r
2D	.	.	.	.	.
1G	.	2r	.	.	.
.	.	[2d	.	4A	.
.	.	.	.	4G	.
=149	=149	=149	=149	=149	=149
2F	0r	2d]	0r	2A	2r
2E	.	2c	.	2G	1g
1D	.	2d	.	2A	.
.	.	2A	.	[2d	2f
=150	=150	=150	=150	=150	=150
1GG	0r	1d	0r	2d]	2g
.	.	.	.	4c	2d
.	.	.	.	4B-y	.
1r	.	2c	.	2e-i	1g
.	.	2B-y	.	[2d	.
=151	=151	=151	=151	=151	=151
0r	0r	1A	1r	2d]	2f
.	.	.	.	2c	2e
.	.	2.B-y	2r	2.d	[1d
.	.	.	[2G	.	.
.	.	4c	.	4c	.
=152	=152	=152	=152	=152	=152
2r	0r	2d	2G]	2B-y	1d]
1D	.	2f	2F	2A	.
.	.	1e	2G	2B-y	2r
2C	.	.	2E	2c	[2g
=153	=153	=153	=153	=153	=153
1D	0r	1d	2F	1A	2g]
.	.	.	1D	.	2f
2BB-y	.	2r	.	1r	1g
2C	.	[2G	2E	.	.
=154	=154	=154	=154	=154	=154
1AA	0r	2G]	1C	2r	1a
.	.	2F	.	1c	.
1GG	.	1G	2D	.	1d
.	.	.	[2d	2B-y	.
=155	=155	=155	=155	=155	=155
1r	0r	1E	2d]	1c	2r
.	.	.	2c	.	1g
2r	.	1D	1d	1A	.
2D	.	.	.	.	2f
=156	=156	=156	=156	=156	=156
1E-X	0G	0r	1B-y	1G	1g
1C	.	.	2.c	1r	1e
.	.	.	4B-y	.	.
=157	=157	=157	=157	=157	=157
1D	1F	2r	1A	1r	2d
.	.	1d	.	.	2a
[1GG	[1G	.	1G	2r	1b-y
.	.	2d	.	2g	.
=158	=158	=158	=158	=158	=158
1GG]	1G]	1B-y	2r	2g	1g
.	.	.	1d	2.g	.
1r	1D	1A	.	.	1a
.	.	.	.	8fL	.
.	.	.	.	8eJ	.
.	.	.	2d	2f	.
=159	=159	=159	=159	=159	=159
1GG	1G	2G	2B-y	2g	1d
.	.	2B-y	2G	2d	.
2.D	1F	2A	2.A	2d	1r
.	.	2F	.	2d	.
4D	.	.	4B-y	.	.
=160	=160	=160	=160	=160	=160
2C	1E	2G	1c	2e	0r
2AA	.	2A	.	2c	.
1BB-y	2D	2F	1r	[1d	.
.	[2F	2D	.	.	.
=161	=161	=161	=161	=161	=161
0AA	2F]	1A	2r	2d]	1r
.	4E	.	2A	4c#i	.
.	4D	.	.	4BnXi	.
.	1E	1r	2A	1c#i	2r
.	.	.	2A	.	2a
=162	=162	=162	=162	=162	=162
0r	0D	1A	2F	0d	2a
.	.	.	2D	.	2a
.	.	2.d	[1A	.	2f
.	.	.	.	.	2d
.	.	4d	.	.	.
=163	=163	=163	=163	=163	=163
0r	0r	2c	2A]	1r	2e
.	.	2A	2F	.	2.a
.	.	1B-y	1G	1d	.
.	.	.	.	.	8gL
.	.	.	.	.	8fJ
.	.	.	.	.	2g
=164	=164	=164	=164	=164	=164
1D	1r	1A	1F	1f	1a
2C	[1G	1r	2r	2e	1r
2BB-y	.	.	[2B-y	[2d	.
=165	=165	=165	=165	=165	=165
1E-i	1G]	0r	2B-]	4d]	1r
.	.	.	.	8cL	.
.	.	.	.	8B-yJ	.
.	.	.	2G	2c	.
1D	1F	.	1A	1d	2r
.	.	.	.	.	2f
=166	=166	=166	=166	=166	=166
0r	1G	2r	1B-y	0r	2e
.	.	2G	.	.	2d
.	1E	2B-y	1G	.	1g
.	.	2c	.	.	.
=167	=167	=167	=167	=167	=167
1.BB-y	[0D	1d	1r	1r	1f
.	.	1B-y	[1F	[1f	[1b-y
2BB-y	.	.	.	.	.
=168	=168	=168	=168	=168	=168
0BB-y	0D]	1.d	2F]	2f]	2b-]
.	.	.	2F	2f	2b-y
.	.	.	[1F	1f	1b-y
.	.	2d	.	.	.
=169	=169	=169	=169	=169	=169
0D	0r	1d	1F]	0f	1a
.	.	1d	[1A	.	1a
=170	=170	=170	=170	=170	=170
1AA	0r	1c	1A]	1e	1.cc
[1C	.	[1c	1E	[1e	.
.	.	.	.	.	2g
=171	=171	=171	=171	=171	=171
2C]	0r	2c]	1.G	2e]	1g
2GG	.	2B-y	.	2d	.
1GG	.	1B-y	.	[1d	2r
.	.	.	2D	.	2b-y
=172	=172	=172	=172	=172	=172
0r	0r	2r	1D	1d]	2a
.	.	2d	.	.	2f
.	.	2c	1r	2r	2a
.	.	2A	.	2f	[2cc
=173	=173	=173	=173	=173	=173
1r	0r	1c	0r	2e	4cc]
.	.	.	.	.	4b-y
.	.	.	.	2c	1a
2r	.	1B-y	.	2.d	.
2G	.	.	.	.	2g
.	.	.	.	4e	.
=174	=174	=174	=174	=174	=174
2F	0r	0A	2r	4f	0a
.	.	.	.	4e	.
2D	.	.	2d	2.f	.
1F	.	.	2c	.	.
.	.	.	.	4e	.
.	.	.	2A	[2d	.
=175	=175	=175	=175	=175	=175
1E-X	0r	0r	2B-y	2d]	2r
.	.	.	2G	2c	2g
[1D	.	.	2A	2.d	2f
.	.	.	[2f	.	2d
.	.	.	.	8cL	.
.	.	.	.	8B-yJ	.
=176	=176	=176	=176	=176	=176
1D]	0r	2r	4f]	1A	1f
.	.	.	4e	.	.
.	.	2F	1d	.	.
1r	.	2G	.	1r	1e
.	.	2A	2c#i	.	.
=177	=177	=177	=177	=177	=177
2r	0r	1B-y	1d	0r	2d
2BB-y	.	.	.	.	2.g
2C	.	1A	1r	.	.
.	.	.	.	.	8f#iL
.	.	.	.	.	8eJ
2D	.	.	.	.	2f#i
=178	=178	=178	=178	=178	=178
*M3/1	*M3/1	*M3/1	*M3/1	*M3/1	*M3/1
*met(3)	*met(3)	*met(3)	*met(3)	*met(3)	*met(3)
0E-X	0.r	1G	1r	1B-y	0g
.	.	1G	1r	1c	.
1D	.	1A	1F	1d	1r
=179	=179	=179	=179	=179	=179
1C	0.r	0c	1G	0e-i	1r
1C	.	.	1A	.	1r
1D	.	1B-y	[1B-y	1d	1f
=180	=180	=180	=180	=180	=180
1E-X	0.r	1G	1B-]	1B-y	1g
1F	.	1c	1A	1f	1a
1G	.	2.B-y	1G	1d	[1b-y
.	.	4A	.	.	.
=181	=181	=181	=181	=181	=181
1GG	0D	1G	1G	1d	1b-]
1r	.	1F	1A	1f	1a
1r	1E	1G	[1c	[1e	[1g
=182	=182	=182	=182	=182	=182
0.r	1C	1E	1c]	1e]	1g]
.	0D	0F	1B-y	1d	1r
.	.	.	1A	[1d	1f
=183	=183	=183	=183	=183	=183
0.r	1BB-y	1D	1G	1d]	0b-y
.	2r	1G	1B-y	1d	.
.	2GG	.	.	.	.
.	1AA	1E	1r	1c	1cc
=184	=184	=184	=184	=184	=184
0.r	1BB-y	1D	1.G	1d	1b-y
.	1C	1E	.	0c	1g
.	.	.	4F#i	.	.
.	.	.	4E	.	.
.	1AA	1C	1F#i	.	1a
=185	=185	=185	=185	=185	=185
1r	0.GG	1D	0.G	0B-y	0b-y
1D	.	1r	.	.	.
1E	.	1G	.	1r	1r
=186	=186	=186	=186	=186	=186
1F	0.r	1A	1%3r	1r	1r
1G	.	1B-y	.	1d	1r
1E	.	1c	.	1e	1g
=187	=187	=187	=187	=187	=187
1D	0.r	1A	1r	1f	1a
1GG	.	1G	1G	1g	1b-y
1r	.	1r	[1A	1e	1cc
=188	=188	=188	=188	=188	=188
1D	0.r	1r	2A]	1d	1a
.	.	.	2B-y	.	.
1E	.	1G	1c	1r	1g
1F	.	1A	1A	1r	1r
=189	=189	=189	=189	=189	=189
1G	0.r	1B-y	1G	1d	1r
1E	.	1c	1r	1e	1g
1D	.	1A	1r	1f	1a
=190	=190	=190	=190	=190	=190
1GG	0.r	1G	1G	1g	1b-y
1r	.	1r	1A	1e	1cc
1r	.	1r	1B-y	1d	1b-y
=191	=191	=191	=191	=191	=191
0C	0.r	0E	1c	1r	1g
.	.	.	0G	1c	1r
1BB-y	.	1D	.	1d	1r
=192	=192	=192	=192	=192	=192
0C	0.r	1E	0.G	1c	0cc
.	.	1C	.	1e	.
1GG	.	1D	.	1d	1b-y
=193	=193	=193	=193	=193	=193
1C	0G	1E	0.r	1c	1cc
1BB-y	.	1D	.	2d	1g
.	.	.	.	2B-y	.
1AA	1F	1C	.	1c	1a
=194	=194	=194	=194	=194	=194
1.GG	0G	0D	1d	0B-y	0g
.	.	.	1d	.	.
2AA	.	.	.	.	.
1BB-y	1D	1r	1d	1r	1f
=195	=195	=195	=195	=195	=195
1GG	1G	0.r	1d	1B-y	1g
1D	1F	.	1d	1A	0a
1AA	1E	.	1e	1c	.
=196	=196	=196	=196	=196	=196
1D	2D	1A	2f	1d	[0.a
.	1F	.	1d	.	.
0AA	.	1A	.	1.e	.
.	4E	.	4c#i	.	.
.	4D	.	4BnXi	.	.
.	1E	1A	1c#i	.	.
.	.	.	.	4d	.
.	.	.	.	4e	.
=197	=197	=197	=197	=197	=197
1.D	0.D	1.F	1d	1f	0a]
.	.	.	1A	1r	.
2C	.	2E	.	.	.
1BB-y	.	2F	1B-y	1d	1r
.	.	2D	.	.	.
=198	=198	=198	=198	=198	=198
1AA	0.r	0A	1c	1e	1%3r
1D	.	.	1d	1f	.
1E-X	.	1G	1B-y	1g	.
=199	=199	=199	=199	=199	=199
1F	1r	1A	1A	1f	1a
1G	0G	1r	1r	1d	1b-y
1E	.	1r	1r	1e	1cc
=200	=200	=200	=200	=200	=200
1D	1F	1A	0.r	1f	1dd
1GG	1G	1B-y	.	1d	1b-y
1AA	1E	1c	.	1r	1a
=201	=201	=201	=201	=201	=201
1.BB-y	[0.Dl	1.d	1r	1r	1r
.	.	.	1F	1.d	0dd
2AA	.	2c	.	.	.
1GG	.	1B-y	1G	.	.
.	.	.	.	2e	.
=202	=202	=202	=202	=202	=202
1FF	0.D_	1A	1A	1f	1dd
1.GG	.	2G	1.B-y	0d	1.dd
.	.	2A	.	.	.
.	.	2B-y	.	.	.
2AA	.	2c	2A	.	2cc
=203	=203	=203	=203	=203	=203
2BB-y	0.D_	2d	1G	0.d	1b-y
2C	.	2e	.	.	.
1D	.	2f	1F	.	1.a
.	.	2e	.	.	.
1BB-y	.	2d	1G	.	.
.	.	2c	.	.	2g
=204	=204	=204	=204	=204	=204
1GG	0.D_	1B-y	1.d	[0.dl	0g
0D	.	0A	.	.	.
.	.	.	2c	.	.
.	.	.	1A	.	1f#i
=205	=205	=205	=205	=205	=205
00GGl	00D]	00Gl	00B-yl	00d]	00gl
==	==	==	==	==	==
*-	*-	*-	*-	*-	*-
!!!system-decoration: [*]
!!!RDF**kern: i = editorial accidental
!!!RDF**kern: l = terminal long
!!!ENC: Benjamin Ory
!!!END: 2024/6/4
!!!EED: Benjamin Ory
!!!EEV: 2024/06/04
!!!YEC: Copyright 2024 Benjamin Ory, All Rights Reserved
!!!ONB: Translated from MusicXML on 2024/06/04
